public/search.svg

<svg fill="#000000" xmlns="http://www.w3.org/2000/svg"  viewBox="0 0 24 24" width="24px" height="24px"><path d="M 13.261719 14.867188 L 15.742188 17.347656 C 15.363281 18.070313 15.324219 18.789063 15.722656 19.1875 L 20.25 23.714844 C 20.820313 24.285156 22.0625 23.972656 23.015625 23.015625 C 23.972656 22.058594 24.285156 20.820313 23.714844 20.25 L 19.191406 15.722656 C 18.789063 15.324219 18.070313 15.363281 17.347656 15.738281 L 14.867188 13.261719 Z M 8.5 0 C 3.804688 0 0 3.804688 0 8.5 C 0 13.195313 3.804688 17 8.5 17 C 13.195313 17 17 13.195313 17 8.5 C 17 3.804688 13.195313 0 8.5 0 Z M 8.5 15 C 4.910156 15 2 12.089844 2 8.5 C 2 4.910156 4.910156 2 8.5 2 C 12.089844 2 15 4.910156 15 8.5 C 15 12.089844 12.089844 15 8.5 15 Z"/></svg>

<?xml version="1.0" encoding="UTF-8"?>
<svg fill="#000000" viewBox="0 0 24 24" xmlns="http://www.w3.org/2000/svg">
<path d="m13.262 14.867 2.4805 2.4805c-0.37891 0.72266-0.41797 1.4414-0.019532 1.8398l4.5273 4.5273c0.57031 0.57031 1.8125 0.25781 2.7656-0.69922 0.95703-0.95703 1.2695-2.1953 0.69922-2.7656l-4.5234-4.5273c-0.40234-0.39844-1.1211-0.35938-1.8438 0.015625l-2.4805-2.4766zm-4.7617-14.867c-4.6953 0-8.5 3.8047-8.5 8.5 0 4.6953 3.8047 8.5 8.5 8.5 4.6953 0 8.5-3.8047 8.5-8.5 0-4.6953-3.8047-8.5-8.5-8.5zm0 15c-3.5898 0-6.5-2.9102-6.5-6.5s2.9102-6.5 6.5-6.5 6.5 2.9102 6.5 6.5-2.9102 6.5-6.5 6.5z"/>
</svg>
